icons/fill-new-people-close.svg

<svg xmlns="http://www.w3.org/2000/svg" width="32px" height="32px" viewBox="0 0 32 32" version="1.1">
    <title>fill-new-people-close</title>
    <g id="fill-new-people-close" stroke-width="1" fill-rule="evenodd">
        <path d="M23,16 C26.8659932,16 30,19.1340068 30,23 C30,26.8659932 26.8659932,30 23,30 C19.1340068,30 16,26.8659932 16,23 C16,19.1340068 19.1340068,16 23,16 Z M15.5162589,17.9989396 C14.5585477,19.4292479 14,21.1493961 14,23 C14,25.3053753 14.8667953,27.4082996 16.2922591,29.0006464 L5,29 C4.44771525,29 4,28.5522847 4,28 L4,23 C4,20.2385763 6.23857625,18 9,18 L15.5162589,17.9989396 Z M19.7928932,19.7928932 C19.4023689,20.1834175 19.4023689,20.8165825 19.7928932,21.2071068 L21.585,23 L19.7928932,24.7928932 C19.4324093,25.1533772 19.4046797,25.7206082 19.7097046,26.1128994 L19.7928932,26.2071068 C20.1834175,26.5976311 20.8165825,26.5976311 21.2071068,26.2071068 L23,24.415 L24.7928932,26.2071068 C25.1533772,26.5675907 25.7206082,26.5953203 26.1128994,26.2902954 L26.2071068,26.2071068 C26.5976311,25.8165825 26.5976311,25.1834175 26.2071068,24.7928932 L24.415,23 L26.2071068,21.2071068 C26.5675907,20.8466228 26.5953203,20.2793918 26.2902954,19.8871006 L26.2071068,19.7928932 C25.8165825,19.4023689 25.1834175,19.4023689 24.7928932,19.7928932 L23,21.585 L21.2071068,19.7928932 C20.8165825,19.4023689 20.1834175,19.4023689 19.7928932,19.7928932 Z M16,2 C19.8659932,2 23,5.13400675 23,9 C23,12.8659932 19.8659932,16 16,16 C12.1340068,16 9,12.8659932 9,9 C9,5.13400675 12.1340068,2 16,2 Z" id="&#24418;&#29366;" />
    </g>
</svg>

<svg xmlns="http://www.w3.org/2000/svg" viewBox="0 0 32 32"><path fill="currentColor" d="M23 16a7 7 0 1 1 0 14 7 7 0 0 1 0-14m-7.484 1.999A8.958 8.958 0 0 0 14 23c0 2.305.867 4.408 2.292 6H5a1 1 0 0 1-1-1v-5a5 5 0 0 1 5-5zm4.277 1.794a1 1 0 0 0 0 1.414L21.585 23l-1.792 1.793a1 1 0 0 0-.083 1.32l.083.094a1 1 0 0 0 1.414 0L23 24.415l1.793 1.792a1 1 0 0 0 1.32.083l.094-.083a1 1 0 0 0 0-1.414L24.415 23l1.792-1.793a1 1 0 0 0 .083-1.32l-.083-.094a1 1 0 0 0-1.414 0L23 21.585l-1.793-1.792a1 1 0 0 0-1.414 0M16 2a7 7 0 1 1 0 14 7 7 0 0 1 0-14"/></svg>
